X:1
T:Title
%%score { ( 1 2 ) | ( 3 4 ) }
L:1/8
Q:1/4=100
M:3/4
K:Eb
V:1 treble nm="Grand Piano"
V:2 treble 
V:3 bass 
V:4 bass 
V:1
 [GB]4 z2 | z2 z2 [EG]2 | A4 A2 | G4 z2 | E2 F2 G2 | [EA]2 [EB]2 [Ec]2 | BF d2 c2 | [DB]4 z2 | %8
w: W.~H.~Doane||||||||
 [FA]2 [EG]2 [DF]2 | [DF]3 [EG] [FA]2 | [B,EG]2 [B,FA]2 [EAc]2 | [C_G=A]2 [=GB]2 z2 | %12
w: ||||
 [FA]2 [EG]2 [DF]2 | [DF]3 [EG] [FA]2 | [EG]2 [FA]2 [Ac]2 | [_G=A]2 B2 z2 | [EGB]4 [E_G=A]2 | %17
w: |||||
 [EGB]4 [B,EG]2 | [A,EA]4 [EB]2 | [Ec]4 z2 | B2 A2 G2 | [EA]2 [EB]2 [Ec]2 | %22
w: |||||
 .[EB]2 [B,EG]2 [A,DF]2 | [G,E]4 z2 |] %24
w: ||
V:2
 E2 z2 [C_G=A]2 | [B,GB]4 B,_D | x6 | x6 | x6 | x6 | D2 z2 z2 | x6 | x6 | x6 | x6 | x6 | x6 | x6 | %14
 x6 | x6 | x6 | x6 | x6 | x6 | x6 | x6 | x6 | x6 |] %24
V:3
 z2 B,2 E,2 | E,4 E,2 | [E,CE]4 [E,=B,E]2 | [E,B,E]4 z2 | [G,B,]2 [F,B,D]2 [E,B,E]2 | %5
 [C,A,]2 [B,,G,]2 [=A,,F,]2 | [B,,F,]2 [F,B,F]2 [F,=A,E]2 | [B,,B,]4 z2 | %8
 [B,,B,]2 [B,,B,]2 [B,,B,]2 | [B,,B,]3 [B,,B,] [B,,B,]2 | E,2 E,2 E,2 | z2 B,2 z2 | %12
 [B,,B,]2 [B,,B,]2 [B,,B,]2 | [B,,B,]3 [B,,B,] [B,,B,]2 | [E,B,]2 [E,B,]2 [E,E]2 | %15
 z2[K:treble] G2 z2 | E,2 D,2 C,2 | B,,2 E,2 _D,2 | C,4 [B,,G,]2 | [A,,A,]4 z2 | %20
 [G,B,E]2 [F,B,D]2 [E,B,E]2 | [C,A,]2 [B,,G,]2 [=A,,_G,]2 | z E B,,2 B,,2 | E,4 z2 |] %24
V:4
 E,4 z2 | x6 | x6 | x6 | x6 | x6 | x6 | x6 | x6 | x6 | x6 | E,4 z2 | x6 | x6 | x6 | %15
 [E,E]4[K:treble] z2 | x6 | x6 | x6 | x6 | x6 | x6 | [B,,G,]2 z2 z2 | x6 |] %24

